X:1
T:Title
%%score { 1 | 2 }
L:1/8
M:4/4
K:Eb
V:1 treble nm="Grand Piano"
V:2 bass 
V:1
 z4 z2[Q:1/4=100] EF | G2 G2 [EG]2 [DF]2 | [EG]2 [GB]4 Bc | B2 A2 G2 [DF]2 |[M:3/4] G6 | %5
[M:1/4] EF |[M:4/4] G2 G2 [EG]2 [DF]2 | [EG]2 [GB]4 Bc | B2 E2 [EG]2 [DF]2 |[M:3/4] E6 | %10
[M:1/4] [GB][GB] |[M:4/4] [Ge]3 [Ge] [Ae]2 [Ac]2 | [GB]2 G4 E2 | G4 F2 E2 |[M:3/4] c2 B4 | %15
[M:1/4] [GB]2 |[M:4/4] [Ge]3 [Ge] [Ae]2 [EAc]2 | [EGB]2 [B,EG]4 [B,E][B,DF] | %18
 [B,EG]3 [CEA] [B,EG]2 [A,DF]2 |[M:3/4] [G,E]6 |[M:1/4] [GB][GB] |[M:4/4] [Ge]3 [Ge] [Ae]2 [Ac]2 | %22
 [GB]2 G4 E2 | G4 F2 E2 |[M:3/4] c2 B4 |[M:1/4] [GB]2 |[M:4/4] [Ge]3 [Ge] [Ae]2 [EAc]2 | %27
 [EGB]2 [B,EG]4 [B,E][B,DF] | [B,EG]3 [CEA] [B,EG]2 [A,DF]2 |[M:3/4] [G,E]6 |] %30
V:2
 z4 z2 [E,G,B,][E,A,B,] | [E,B,E]2 [E,B,E]2 [B,,B,]2 [B,,B,]2 | [E,B,]2 [E,E]4 [G,E][A,E] | %3
 [G,E]2 [F,B,D]2 [E,B,E]2 [B,,B,]2 |[M:3/4] [E,B,E]6 |[M:1/4] [E,G,B,][E,A,B,] | %6
[M:4/4] [E,B,E]2 [E,B,E]2 [B,,B,]2 [B,,B,]2 | [E,B,]2 [E,E]4 [E,G,E][E,A,E] | %8
 [E,G,E]2 [C,G,]2 [B,,B,]2 [B,,A,]2 |[M:3/4] [E,G,]6 |[M:1/4] [E,E][E,E] | %11
[M:4/4] [E,B,]3 [E,B,] [A,C]2 [A,E]2 | [E,E]2 [E,B,E]4 [E,G,B,]2 | [E,B,E]4 [E,A,D]2 [E,G,]2 | %14
[M:3/4] [E,A,E]2 [E,G,E]4 |[M:1/4] [E,E]2 |[M:4/4] [E,B,]3 [E,B,] [A,C]2 A,2 | E,2 E,4 G,F, | %18
 E,3 A,, B,,2 B,,2 |[M:3/4] E,6 |[M:1/4] [E,E][E,E] |[M:4/4] [E,B,]3 [E,B,] [A,C]2 [A,E]2 | %22
 [E,E]2 [E,B,E]4 [E,G,B,]2 | [E,B,E]4 [E,A,D]2 [E,G,]2 |[M:3/4] [E,A,E]2 [E,G,E]4 |[M:1/4] [E,E]2 | %26
[M:4/4] [E,B,]3 [E,B,] [A,C]2 A,2 | E,2 E,4 G,F, | E,3 A,, B,,2 B,,2 |[M:3/4] E,6 |] %30

